X:195
T:Leitrim Fancy, The
M:6/8
L:1/8
Q:120
S:THSP
R:jig
Z:
K:Edor
"Em"GBG "D"FAF|"Em"E2B BAB|GBG "G"FAF|"D"DFA AFD|
"Em"GBG "D"FAF|"Em"E2B BAB|"G"GAB dBG|"D"(3ABA G FED:|
|:"G"GAB ~d3|edB dBA|GAB dBG|"D"(3ABA G FED|
"G"GAB ~d3|edB def|"C"gfe dBG|"D"(3ABA G FED:||
